src/assets/loyaltyprogicon.svg

<svg width="56" height="56" viewBox="0 0 56 56" fill="none" xmlns="http://www.w3.org/2000/svg">
<path d="M49.9277 28.0312V51.9218C49.9277 53.3392 48.7787 54.4882 47.3613 54.4882H8.63669C7.2193 54.4882 6.07031 53.3392 6.07031 51.9218V28.0312C6.07031 26.6138 7.2193 25.4648 8.63669 25.4648H47.3613C48.7787 25.4648 49.9277 26.6138 49.9277 28.0312Z" fill="white"/>
<path opacity="0.3" d="M49.8212 32.9629H6.125V41.1861H49.8212V32.9629Z" fill="#FF0000"/>
<path d="M38.5887 25.4706C38.5887 31.331 33.8378 36.0818 27.9666 36.0818C22.1062 36.0818 17.3555 31.331 17.3555 25.4706C17.3555 19.5994 22.1063 14.8486 27.9666 14.8486C33.8378 14.8486 38.5887 19.5994 38.5887 25.4706Z" fill="white"/>
<path opacity="0.3" d="M27.975 20.6367L29.5437 23.8153L33.0515 24.325L30.5132 26.7992L31.1124 30.2928L27.975 28.6433L24.8375 30.2928L25.4367 26.7992L22.8984 24.325L26.4062 23.8153L27.975 20.6367Z" fill="#FF0000"/>
<path d="M5.21484 51.9221C5.21484 53.8084 6.74938 55.3429 8.63566 55.3429H47.3605C49.2468 55.3429 50.7813 53.8084 50.7813 51.9221V28.0314C50.7813 26.1452 49.2468 24.6106 47.3605 24.6106H39.3986C38.9559 18.6841 34.0034 13.9941 27.9657 13.9941C21.9336 13.9941 16.9859 18.6841 16.5437 24.6106H8.63566C6.74938 24.6106 5.21484 26.1452 5.21484 28.0314V51.9221ZM47.3605 53.6339H8.63566C7.69186 53.6339 6.92383 52.8658 6.92383 51.9221V42.0407H49.0724V51.9221C49.0724 52.8659 48.3042 53.6339 47.3605 53.6339ZM20.1299 33.8174C22.1822 35.7452 24.9345 36.9361 27.9658 36.9361C30.9999 36.9361 33.7548 35.7452 35.8091 33.8174H48.9647V40.3319H6.97764V33.8174H20.1299ZM49.0724 28.0314V32.1085H37.3058C38.4902 30.45 39.2404 28.4678 39.3991 26.3196H47.3605C48.3042 26.3196 49.0724 27.0878 49.0724 28.0314ZM27.9657 15.7031C33.3516 15.7031 37.7332 20.0847 37.7332 25.4706C37.7332 30.8507 33.3517 35.2272 27.9657 35.2272C22.5857 35.2272 18.2091 30.8506 18.2091 25.4706C18.2091 20.0847 22.5858 15.7031 27.9657 15.7031ZM8.63566 26.3196H16.5433C16.7018 28.4678 17.4513 30.45 18.6345 32.1085H6.92383V28.0314C6.92383 27.0878 7.69197 26.3196 8.63566 26.3196Z" fill="#B30000"/>
<path d="M17.0086 47.668H10.6398C10.168 47.668 9.7854 48.0506 9.7854 48.5225C9.7854 48.9943 10.168 49.3769 10.6398 49.3769H17.0086C17.4805 49.3769 17.8631 48.9943 17.8631 48.5225C17.8632 48.0506 17.4806 47.668 17.0086 47.668ZM24.5165 27.0975L23.9933 30.1487C23.874 30.848 24.6104 31.3776 25.2333 31.0495L27.9731 29.6092L30.713 31.0495C31.3377 31.3765 32.0723 30.8482 31.953 30.1487L31.4298 27.0975L33.6461 24.9372C34.1528 24.4431 33.8726 23.5809 33.1725 23.4794L30.1094 23.0347L28.7396 20.259C28.4518 19.6757 27.4946 19.6757 27.2068 20.259L25.8371 23.0347L22.7739 23.4794C22.0742 23.5809 21.7935 24.443 22.3003 24.9372L24.5165 27.0975ZM26.5271 24.6614C26.8054 24.621 27.0461 24.4462 27.1709 24.1937L27.9731 22.5679L28.7754 24.1937C28.9002 24.4462 29.1409 24.621 29.4192 24.6614L31.2133 24.9217L29.9153 26.1872C29.7139 26.3838 29.622 26.6666 29.6691 26.9436L29.9758 28.7314L28.3707 27.8873C28.125 27.7578 27.826 27.7553 27.5755 27.8873L25.9704 28.7314L26.2771 26.9436C26.3242 26.6666 26.2324 26.3838 26.0309 26.1872L24.7329 24.9217L26.5271 24.6614ZM27.2372 1.51166V8.87599C27.2372 9.34784 27.6198 9.73043 28.0916 9.73043C28.5634 9.73043 28.946 9.34784 28.946 8.87599V1.51166C28.946 1.03982 28.5634 0.657227 28.0916 0.657227C27.6198 0.657227 27.2372 1.03982 27.2372 1.51166ZM42.025 4.84443L38.4779 11.298C38.2505 11.7114 38.4015 12.2309 38.8154 12.4582C39.223 12.6829 39.7459 12.5389 39.9756 12.1207L43.5228 5.66715C43.7502 5.25371 43.5991 4.73429 43.1852 4.5069C42.7715 4.27863 42.2519 4.43055 42.025 4.84443ZM12.7581 4.69382C12.3467 4.92493 12.2003 5.4461 12.4314 5.85746L16.0374 12.278C16.269 12.6902 16.7911 12.8348 17.201 12.6047C17.6124 12.3736 17.7588 11.8524 17.5277 11.4411L13.9217 5.02052C13.6905 4.60949 13.1702 4.46348 12.7581 4.69382Z" fill="#B30000"/>
</svg>

<svg width="56" height="56" viewBox="0 0 56 56" fill="none" xmlns="http://www.w3.org/2000/svg">
    <path d="M49.929 28.031v23.891a2.566 2.566 0 0 1-2.567 2.566H8.638a2.566 2.566 0 0 1-2.567-2.566v-23.89a2.566 2.566 0 0 1 2.567-2.567h38.724a2.566 2.566 0 0 1 2.567 2.566z" fill="#fff"/>
    <path opacity=".3" d="M49.821 32.963H6.125v8.223h43.696v-8.223z" fill="red"/>
    <path d="M38.59 25.47c0 5.86-4.751 10.612-10.622 10.612-5.86 0-10.612-4.751-10.612-10.612 0-5.87 4.751-10.622 10.612-10.622 5.87 0 10.622 4.751 10.622 10.622z" fill="#fff"/>
    <path opacity=".3" d="m27.973 20.637 1.569 3.178 3.508.51L30.51 26.8l.6 3.494-3.138-1.65-3.137 1.65.599-3.494-2.538-2.474 3.507-.51 1.569-3.178z" fill="red"/>
    <path d="M5.217 51.922a3.425 3.425 0 0 0 3.42 3.42h38.725a3.425 3.425 0 0 0 3.421-3.42v-23.89a3.425 3.425 0 0 0-3.42-3.422H39.4c-.443-5.926-5.396-10.616-11.433-10.616-6.032 0-10.98 4.69-11.422 10.616H8.638a3.425 3.425 0 0 0-3.421 3.421v23.891zm42.145 1.712H8.639a1.714 1.714 0 0 1-1.712-1.712v-9.881h42.148v9.881c0 .944-.768 1.712-1.712 1.712zm-27.23-19.817a11.412 11.412 0 0 0 7.836 3.119c3.034 0 5.789-1.19 7.843-3.119h13.156v6.515H6.98v-6.515h13.152zm28.942-5.786v4.077H37.308A11.377 11.377 0 0 0 39.4 26.32h7.961c.944 0 1.712.768 1.712 1.711zM27.968 15.703c5.385 0 9.767 4.382 9.767 9.768 0 5.38-4.381 9.756-9.767 9.756-5.38 0-9.757-4.376-9.757-9.756 0-5.386 4.377-9.768 9.757-9.768zM8.638 26.32h7.907c.159 2.148.908 4.13 2.091 5.788H6.927v-4.077c0-.943.768-1.711 1.712-1.711z" fill="#004498"/>
    <path d="M17.008 47.668H10.64a.854.854 0 0 0 0 1.709h6.368a.854.854 0 0 0 0-1.709zm7.508-20.57-.523 3.05a.855.855 0 0 0 1.24.901l2.74-1.44 2.74 1.44a.855.855 0 0 0 1.24-.9l-.523-3.052 2.216-2.16a.855.855 0 0 0-.474-1.458l-3.063-.444-1.37-2.776c-.288-.583-1.245-.583-1.533 0l-1.37 2.776-3.062.444a.855.855 0 0 0-.474 1.458l2.216 2.16zm2.01-2.437a.855.855 0 0 0 .645-.467l.802-1.626.802 1.626a.855.855 0 0 0 .644.467l1.794.26-1.298 1.266a.856.856 0 0 0-.246.757l.307 1.787-1.605-.844a.855.855 0 0 0-.796 0l-1.605.844.307-1.787a.856.856 0 0 0-.246-.757l-1.298-1.265 1.794-.26zm.71-23.15v7.365a.855.855 0 0 0 1.71 0V1.512a.854.854 0 0 0-1.71 0zm14.789 3.333-3.547 6.454a.854.854 0 1 0 1.497.823l3.547-6.454a.854.854 0 1 0-1.497-.823zm-29.267-.15a.855.855 0 0 0-.327 1.163l3.606 6.421a.856.856 0 0 0 1.49-.837l-3.606-6.42a.856.856 0 0 0-1.163-.327z" fill="#004498"/>
</svg>
